madamjo/images/glass.svg

<svg width="16" height="16" viewBox="0 0 16 16" fill="none" xmlns="http://www.w3.org/2000/svg">
<path d="M8.4125 10.3L15.125 3.9125H10.975L14.3125 0.3375L13.9 0L10.25 3.9125H0.875L7.5875 10.3V15L5.4 16H10.5875L8.4125 15V10.3ZM2.8375 4.6875H9.525L7.95 6.375H5.025L8 9.2L10.975 6.375H8.6875L10.25 4.6875H13.1625L8 9.6L2.8375 4.6875Z" fill="#5F666E"/>
</svg>

<?xml version="1.0" encoding="utf-8"?>
<!-- Generator: Adobe Illustrator 16.0.0, SVG Export Plug-In . SVG Version: 6.00 Build 0)  -->
<!DOCTYPE svg PUBLIC "-//W3C//DTD SVG 1.1//EN" "http://www.w3.org/Graphics/SVG/1.1/DTD/svg11.dtd">
<svg version="1.1" id="Layer_1" xmlns="http://www.w3.org/2000/svg" xmlns:xlink="http://www.w3.org/1999/xlink" x="0px" y="0px"
	 width="17px" height="17px" viewBox="-0.5 -0.5 17 17" enable-background="new -0.5 -0.5 17 17" xml:space="preserve">
<path fill="#5F666E" d="M8.413,10.3l6.712-6.387h-4.15l3.338-3.575L13.9,0l-3.65,3.913H0.875L7.587,10.3V15L5.4,16h5.188l-2.175-1
	V10.3z M2.837,4.688h6.688L7.95,6.375H5.025L8,9.2l2.975-2.825H8.688l1.563-1.688h2.912L8,9.6L2.837,4.688z"/>
</svg>
